static/assets/images/logos/monochrome/neighbourhoodie.svg

<svg height="88" width="172" xmlns="http://www.w3.org/2000/svg"><path d="M.026 28.006c.352-.054.524.286.742.49l6.059 6.372c.003-2.22 0-4.44.001-6.66h1.81c-.008 3.606.013 7.21-.01 10.817a.868.868 0 0 1-.384-.237c-2.137-2.264-4.292-4.512-6.434-6.773-.003 2.255 0 4.51-.002 6.766H.003c.017-3.592-.03-7.184.023-10.775zm70.823.097c1.644-.257 3.412.25 4.603 1.428 1.793 1.828 2.078 4.936.667 7.068-.856 1.264-2.246 2.214-3.795 2.307-1.645.213-3.405-.327-4.554-1.542-1.788-1.897-1.957-5.069-.426-7.166.804-1.152 2.12-1.915 3.505-2.095zm-.137 1.684a3.205 3.205 0 0 0-1.665 1.135c-1.21 1.616-1.11 4.177.394 5.58 1.294 1.237 3.638 1.13 4.75-.302 1.29-1.644 1.19-4.326-.377-5.76-.833-.751-2.036-.958-3.102-.653zM13.168 28.21c2.154 0 4.309-.002 6.464 0v1.656h-4.655v2.749h4.204v1.62h-4.204v2.925h4.655v1.62c-2.155.002-4.31 0-6.464 0zm17.102 2.006c.79-.997 1.913-1.73 3.162-1.993 1.725-.437 3.61-.048 5.097.903-.272.482-.55.963-.823 1.445-1.08-.703-2.428-1.015-3.703-.802-1.039.203-2.016.857-2.484 1.821-.438.835-.528 1.819-.373 2.74.24 1.24 1.133 2.372 2.341 2.788 1.131.44 2.422.286 3.483-.273-.002-.693 0-1.388 0-2.082H34.5v-1.585c1.41 0 2.82-.002 4.232 0 0 1.55-.002 3.1 0 4.65-.852.517-1.785.936-2.777 1.078-1.468.143-3.048.007-4.299-.843-1.312-.789-2.212-2.192-2.422-3.703-.228-1.447.142-2.98 1.036-4.144zm25.757-1.9c1.474-.08 2.985-.365 4.436.038.895.201 1.772.722 2.192 1.562.342.637.31 1.43.022 2.079-.307.66-.974 1.036-1.608 1.322.507.158 1.004.385 1.405.737.656.622.852 1.621.63 2.477-.29 1.022-1.2 1.77-2.192 2.068-1.581.527-3.266.199-4.885.076v-10.36zm1.782 5.765c-.007 1.063-.004 2.126-.001 3.19.7.083 1.413.104 2.11-.021.546-.142 1.107-.493 1.262-1.07.216-.644-.028-1.44-.643-1.77-.831-.444-1.815-.436-2.728-.329zm-.002-4.288c.004.983-.01 1.967.008 2.949.912-.015 1.977.166 2.735-.46.705-.556.63-1.773-.123-2.252-.78-.49-1.755-.324-2.62-.237zM80.58 28.21h1.807c.004 2.183-.011 4.367.007 6.549.01.844.285 1.801 1.07 2.238 1 .554 2.432.46 3.212-.428.63-.783.57-1.847.568-2.794-.002-1.855-.002-3.71-.002-5.565h1.806c.002 2.179.003 4.357 0 6.536 0 1.13-.328 2.32-1.164 3.12-1.034 1.01-2.603 1.227-3.981 1.034-1.135-.14-2.24-.768-2.78-1.8-.56-.963-.557-2.111-.543-3.19zm12.9.105c1.915-.162 4.05-.509 5.778.556 1.516.936 1.774 3.232.688 4.587-.344.5-.874.82-1.403 1.095.924 1.41 1.854 2.816 2.775 4.229h-2.102c-.769-1.269-1.54-2.536-2.308-3.805-.541.003-1.083.003-1.623-.032v3.837H93.48V28.314zm1.807 1.517c-.002 1.211-.002 2.422 0 3.634.872.041 1.834.116 2.615-.354.994-.628 1.083-2.324.062-2.967-.798-.507-1.785-.382-2.677-.313zm25.988-1.669c1.644-.342 3.456.022 4.74 1.132 2.161 1.892 2.442 5.552.584 7.745-.865 1.061-2.149 1.803-3.53 1.873-1.58.19-3.247-.322-4.388-1.445-1.985-1.994-2.096-5.522-.234-7.634.718-.86 1.747-1.421 2.828-1.67zm.323 1.603c-1.062.255-1.916 1.1-2.284 2.113-.543 1.482-.342 3.309.776 4.477 1.21 1.317 3.524 1.34 4.753.034 1.431-1.55 1.429-4.237-.024-5.772-.819-.855-2.089-1.16-3.221-.852zm13.379-1.525c1.682-.444 3.59-.162 4.961.949 2.104 1.712 2.538 5.06 1.094 7.324-.827 1.269-2.185 2.239-3.717 2.378-1.629.241-3.378-.237-4.568-1.397-2.028-1.993-2.132-5.568-.243-7.69.635-.769 1.537-1.254 2.473-1.564zm.577 1.55c-1.084.295-1.925 1.216-2.245 2.277-.455 1.448-.23 3.189.857 4.305 1.12 1.208 3.195 1.321 4.448.254 1.055-.884 1.426-2.358 1.276-3.686-.121-1.127-.695-2.261-1.701-2.836-.772-.514-1.764-.543-2.635-.315zm10.35-1.477c1.881-.186 3.842-.365 5.668.243 1.435.466 2.705 1.548 3.214 2.992.584 1.668.388 3.642-.645 5.095-.8 1.11-2.077 1.817-3.405 2.073-1.596.287-3.23.151-4.832-.007zm1.806 1.514v7.37c1.367.124 2.896.182 4.072-.647 1.008-.71 1.415-2.002 1.39-3.192.003-1.102-.443-2.276-1.4-2.89-1.18-.793-2.7-.821-4.062-.64zM23.87 38.81c.034-3.537.018-7.073.007-10.61.61.03 1.222.02 1.833.011-.02 3.528-.022 7.056-.003 10.584-.613-.003-1.225-.019-1.837.015zm19.15-10.6h1.805v4.405c1.625 0 3.247-.002 4.871 0v-4.406h1.806c.002 3.524 0 7.048 0 10.572h-1.806v-4.546h-4.87v4.546H43.02zm61.784 10.572V28.209h1.806v4.405h4.871v-4.405h1.806V38.78h-1.806v-4.545h-4.87v4.546zm54.394.02c.01-3.532.005-7.063.002-10.594.602.016 1.206.009 1.81.01-.002 3.524-.002 7.048 0 10.572-.604.002-1.21-.007-1.812.012zm6.34-10.592H172v1.656h-4.654v2.749c1.402 0 2.804-.002 4.207 0v1.62h-4.207v2.925H172v1.62h-6.461zm-83.07 21.754c.821-.792 2.028-.988 3.126-.903.76.048 1.468.358 2.13.715-.197.538-.389 1.08-.58 1.62-.848-.611-2-1.006-3.014-.591-.748.28-.997 1.354-.426 1.922 1.078 1.011 2.757 1.163 3.678 2.377 1.071 1.363.488 3.586-1.032 4.364-1.665.867-3.729.471-5.243-.531.206-.539.413-1.077.617-1.617.935.672 2.12 1.081 3.275.925.956-.143 1.413-1.397.822-2.143-.741-.87-1.96-1.022-2.867-1.655-.492-.352-.97-.785-1.183-1.367-.423-1.05-.158-2.356.696-3.116zm12.868-.792c1.666-.368 3.51.05 4.79 1.196 1.956 1.795 2.308 5.057.831 7.25-.891 1.237-2.285 2.166-3.828 2.291-1.742.229-3.62-.423-4.738-1.801-1.613-1.968-1.66-5.052-.085-7.057.733-.975 1.853-1.61 3.03-1.879zm.309 1.599c-.972.237-1.777.964-2.181 1.869a4.643 4.643 0 0 0-.003 3.718c.382.832 1.081 1.541 1.962 1.826 1.312.416 2.906.008 3.718-1.142 1.067-1.493 1.052-3.707-.072-5.168-.782-1.019-2.195-1.444-3.424-1.103zm19.238-1.558h8.528v1.621h-3.354v8.951h-1.806v-8.916h-3.368zm11.132 0l1.992-.001c.64 2.22 1.274 4.44 1.907 6.662.808-1.837 1.598-3.682 2.4-5.52.201-.452.362-.924.634-1.341.098.14.185.285.261.438.932 2.13 1.87 4.256 2.807 6.385.632-2.208 1.253-4.418 1.885-6.624.654.003 1.307.001 1.962.001-1.126 3.58-2.219 7.17-3.366 10.741l-.26.047c-1.13-2.44-2.196-4.911-3.31-7.36-1.059 2.376-2.093 4.76-3.145 7.139-.003.248-.351.303-.402.062-1.13-3.54-2.243-7.086-3.365-10.629zm15.103 10.574c1.63-3.582 3.268-7.16 4.895-10.742l.283.117c1.632 3.533 3.226 7.084 4.842 10.625-.639-.003-1.276.001-1.913-.005-.337-.8-.686-1.594-1.027-2.393-1.394.001-2.79-.001-4.184.001-.343.8-.688 1.597-1.03 2.395-.624 0-1.245 0-1.866.002zm4.994-7.366a851.115 851.115 0 0 0-1.503 3.522l3.004.001c-.5-1.174-1.002-2.347-1.501-3.523zm8.248-3.102c1.7-.155 3.495-.409 5.13.217 1.029.382 1.84 1.324 1.959 2.429.242 1.47-.616 3.036-2.023 3.562.925 1.418 1.843 2.84 2.769 4.258-.708-.004-1.414.013-2.12-.012-.74-1.278-1.533-2.524-2.286-3.792-.543.003-1.084.003-1.624-.033v3.837h-1.805V49.318zm1.806 1.517l-.001 3.591c.874.082 1.837.164 2.62-.311.995-.632 1.078-2.336.05-2.975-.8-.501-1.776-.386-2.669-.305zm-50.397-1.62c2.154-.006 4.308-.001 6.462-.003v1.621h-4.655v3.101h4.091v1.586h-4.09l-.001 4.264h-1.806c-.001-3.524.001-7.046-.001-10.57zm59.77-.003H172v1.621h-4.654v2.784h4.207v1.586h-4.207v2.925H172v1.656h-6.461z"/></svg>

<?xml version="1.0" encoding="UTF-8" standalone="no"?>
<!DOCTYPE svg PUBLIC "-//W3C//DTD SVG 1.1//EN" "http://www.w3.org/Graphics/SVG/1.1/DTD/svg11.dtd">
<svg viewBox="0 0 173 33" version="1.1" xmlns="http://www.w3.org/2000/svg" xmlns:xlink="http://www.w3.org/1999/xlink" xml:space="preserve" xmlns:serif="http://www.serif.com/" style="fill-rule:evenodd;clip-rule:evenodd;stroke-linejoin:round;stroke-miterlimit:2;">
    <g transform="matrix(1,0,0,1,0.00010838,-28.0003)">
        <path d="M0.026,28.006C0.378,27.952 0.55,28.292 0.768,28.496L6.827,34.868C6.83,32.648 6.827,30.428 6.828,28.208L8.638,28.208C8.63,31.814 8.651,35.418 8.628,39.025C8.481,38.981 8.349,38.899 8.244,38.788C6.107,36.524 3.952,34.276 1.81,32.015C1.807,34.27 1.81,36.525 1.808,38.781L0.003,38.781C0.02,35.189 -0.027,31.597 0.026,28.006ZM70.849,28.103C72.493,27.846 74.261,28.353 75.452,29.531C77.245,31.359 77.53,34.467 76.119,36.599C75.263,37.863 73.873,38.813 72.324,38.906C70.679,39.119 68.919,38.579 67.77,37.364C65.982,35.467 65.813,32.295 67.344,30.198C68.148,29.046 69.464,28.283 70.849,28.103ZM70.712,29.787C70.05,29.976 69.465,30.375 69.047,30.922C67.837,32.538 67.937,35.099 69.441,36.502C70.735,37.739 73.079,37.632 74.191,36.2C75.481,34.556 75.381,31.874 73.814,30.44C72.981,29.689 71.778,29.482 70.712,29.787ZM13.168,28.21C15.322,28.21 17.477,28.208 19.632,28.21L19.632,29.866L14.977,29.866L14.977,32.615L19.181,32.615L19.181,34.235L14.977,34.235L14.977,37.16L19.632,37.16L19.632,38.78C17.477,38.782 15.322,38.78 13.168,38.78L13.168,28.21ZM30.27,30.216C31.06,29.219 32.183,28.486 33.432,28.223C35.157,27.786 37.042,28.175 38.529,29.126C38.257,29.608 37.979,30.089 37.706,30.571C36.626,29.868 35.278,29.556 34.003,29.769C32.964,29.972 31.987,30.626 31.519,31.59C31.081,32.425 30.991,33.409 31.146,34.33C31.386,35.57 32.279,36.702 33.487,37.118C34.618,37.558 35.909,37.404 36.97,36.845C36.968,36.152 36.97,35.457 36.97,34.763L34.5,34.763L34.5,33.178C35.91,33.178 37.32,33.176 38.732,33.178C38.732,34.728 38.73,36.278 38.732,37.828C37.88,38.345 36.947,38.764 35.955,38.906C34.487,39.049 32.907,38.913 31.656,38.063C30.344,37.274 29.444,35.871 29.234,34.36C29.006,32.913 29.376,31.38 30.27,30.216ZM56.027,28.316C57.501,28.236 59.012,27.951 60.463,28.354C61.358,28.555 62.235,29.076 62.655,29.916C62.997,30.553 62.965,31.346 62.677,31.995C62.37,32.655 61.703,33.031 61.069,33.317C61.576,33.475 62.073,33.702 62.474,34.054C63.13,34.676 63.326,35.675 63.104,36.531C62.814,37.553 61.904,38.301 60.912,38.599C59.331,39.126 57.646,38.798 56.027,38.675L56.027,28.315L56.027,28.316ZM57.809,34.081C57.802,35.144 57.805,36.207 57.808,37.271C58.508,37.354 59.221,37.375 59.918,37.25C60.464,37.108 61.025,36.757 61.18,36.18C61.396,35.536 61.152,34.74 60.537,34.41C59.706,33.966 58.722,33.974 57.809,34.081ZM57.807,29.793C57.811,30.776 57.797,31.76 57.815,32.742C58.727,32.727 59.792,32.908 60.55,32.282C61.255,31.726 61.18,30.509 60.427,30.03C59.647,29.54 58.672,29.706 57.807,29.793ZM80.58,28.21L82.387,28.21C82.391,30.393 82.376,32.577 82.394,34.759C82.404,35.603 82.679,36.56 83.464,36.997C84.464,37.551 85.896,37.457 86.676,36.569C87.306,35.786 87.246,34.722 87.244,33.775C87.242,31.92 87.242,30.065 87.242,28.21L89.048,28.21C89.05,30.389 89.051,32.567 89.048,34.746C89.048,35.876 88.72,37.066 87.884,37.866C86.85,38.876 85.281,39.093 83.903,38.9C82.768,38.76 81.663,38.132 81.123,37.1C80.563,36.137 80.566,34.989 80.58,33.91L80.58,28.21ZM93.48,28.315C95.395,28.153 97.53,27.806 99.258,28.871C100.774,29.807 101.032,32.103 99.946,33.458C99.602,33.958 99.072,34.278 98.543,34.553C99.467,35.963 100.397,37.369 101.318,38.782L99.216,38.782C98.447,37.513 97.676,36.246 96.908,34.977C96.367,34.98 95.825,34.98 95.285,34.945L95.285,38.782L93.48,38.782L93.48,28.314L93.48,28.315ZM95.287,29.832C95.285,31.043 95.285,32.254 95.287,33.466C96.159,33.507 97.121,33.582 97.902,33.112C98.896,32.484 98.985,30.788 97.964,30.145C97.166,29.638 96.179,29.763 95.287,29.832ZM121.275,28.163C122.919,27.821 124.731,28.185 126.015,29.295C128.176,31.187 128.457,34.847 126.599,37.04C125.734,38.101 124.45,38.843 123.069,38.913C121.489,39.103 119.822,38.591 118.681,37.468C116.696,35.474 116.585,31.946 118.447,29.834C119.165,28.974 120.194,28.413 121.275,28.164L121.275,28.163ZM121.598,29.766C120.536,30.021 119.682,30.866 119.314,31.879C118.771,33.361 118.972,35.188 120.09,36.356C121.3,37.673 123.614,37.696 124.843,36.39C126.274,34.84 126.272,32.153 124.819,30.618C124,29.763 122.73,29.458 121.598,29.766ZM134.977,28.241C136.659,27.797 138.567,28.079 139.938,29.19C142.042,30.902 142.476,34.25 141.032,36.514C140.205,37.783 138.847,38.753 137.315,38.892C135.686,39.133 133.937,38.655 132.747,37.495C130.719,35.502 130.615,31.927 132.504,29.805C133.139,29.036 134.041,28.551 134.977,28.241ZM135.554,29.791C134.47,30.086 133.629,31.007 133.309,32.068C132.854,33.516 133.079,35.257 134.166,36.373C135.286,37.581 137.361,37.694 138.614,36.627C139.669,35.743 140.04,34.269 139.89,32.941C139.769,31.814 139.195,30.68 138.189,30.105C137.417,29.591 136.425,29.562 135.554,29.79L135.554,29.791ZM145.904,28.314C147.785,28.128 149.746,27.949 151.572,28.557C153.007,29.023 154.277,30.105 154.786,31.549C155.37,33.217 155.174,35.191 154.141,36.644C153.341,37.754 152.064,38.461 150.736,38.717C149.14,39.004 147.506,38.868 145.904,38.71L145.904,28.314ZM147.71,29.828L147.71,37.198C149.077,37.322 150.606,37.38 151.782,36.551C152.79,35.841 153.197,34.549 153.172,33.359C153.175,32.257 152.729,31.083 151.772,30.469C150.592,29.676 149.072,29.648 147.71,29.829L147.71,29.828ZM23.87,38.81C23.904,35.273 23.888,31.737 23.877,28.2C24.487,28.23 25.099,28.22 25.71,28.211C25.69,31.739 25.688,35.267 25.707,38.795C25.094,38.792 24.482,38.776 23.87,38.81ZM43.02,28.21L44.825,28.21L44.825,32.615C46.45,32.615 48.072,32.613 49.696,32.615L49.696,28.209L51.502,28.209C51.504,31.733 51.502,35.257 51.502,38.781L49.696,38.781L49.696,34.235L44.826,34.235L44.826,38.781L43.02,38.781L43.02,28.21ZM104.804,38.782L104.804,28.209L106.61,28.209L106.61,32.614L111.481,32.614L111.481,28.209L113.287,28.209L113.287,38.78L111.481,38.78L111.481,34.235L106.611,34.235L106.611,38.781L104.804,38.782ZM159.198,38.802C159.208,35.27 159.203,31.739 159.2,28.208C159.802,28.224 160.406,28.217 161.01,28.218C161.008,31.742 161.008,35.266 161.01,38.79C160.406,38.792 159.8,38.783 159.198,38.802ZM165.538,28.21L172,28.21L172,29.866L167.346,29.866L167.346,32.615C168.748,32.615 170.15,32.613 171.553,32.615L171.553,34.235L167.346,34.235L167.346,37.16L172,37.16L172,38.78L165.539,38.78L165.538,28.21ZM82.468,49.964C83.289,49.172 84.496,48.976 85.594,49.061C86.354,49.109 87.062,49.419 87.724,49.776C87.527,50.314 87.335,50.856 87.144,51.396C86.296,50.785 85.144,50.39 84.13,50.805C83.382,51.085 83.133,52.159 83.704,52.727C84.782,53.738 86.461,53.89 87.382,55.104C88.453,56.467 87.87,58.69 86.35,59.468C84.685,60.335 82.621,59.939 81.107,58.937C81.313,58.398 81.52,57.86 81.724,57.32C82.659,57.992 83.844,58.401 84.999,58.245C85.955,58.102 86.412,56.848 85.821,56.102C85.08,55.232 83.861,55.08 82.954,54.447C82.462,54.095 81.984,53.662 81.771,53.08C81.348,52.03 81.613,50.724 82.467,49.964L82.468,49.964ZM95.336,49.172C97.002,48.804 98.846,49.222 100.126,50.368C102.082,52.163 102.434,55.425 100.957,57.618C100.066,58.855 98.672,59.784 97.129,59.909C95.387,60.138 93.509,59.486 92.391,58.108C90.778,56.14 90.731,53.056 92.306,51.051C93.039,50.076 94.159,49.441 95.336,49.172ZM95.645,50.771C94.673,51.008 93.868,51.735 93.464,52.64C92.945,53.824 92.944,55.173 93.461,56.358C93.843,57.19 94.542,57.899 95.423,58.184C96.735,58.6 98.329,58.192 99.141,57.042C100.208,55.549 100.193,53.335 99.069,51.874C98.287,50.855 96.874,50.43 95.645,50.771ZM114.883,49.213L123.411,49.213L123.411,50.834L120.057,50.834L120.057,59.785L118.251,59.785L118.251,50.869L114.883,50.869L114.883,49.213ZM126.015,49.213L128.007,49.212C128.647,51.432 129.281,53.652 129.914,55.874C130.722,54.037 131.512,52.192 132.314,50.354C132.515,49.902 132.676,49.43 132.948,49.013C133.046,49.153 133.133,49.298 133.209,49.451C134.141,51.581 135.079,53.707 136.016,55.836C136.648,53.628 137.269,51.418 137.901,49.212C138.555,49.215 139.208,49.213 139.863,49.213C138.737,52.793 137.644,56.383 136.497,59.954L136.237,60.001C135.107,57.561 134.041,55.09 132.927,52.641C131.868,55.017 130.834,57.401 129.782,59.78C129.779,60.028 129.431,60.083 129.38,59.842C128.25,56.302 127.137,52.756 126.015,49.213ZM141.118,59.787C142.748,56.205 144.386,52.627 146.013,49.045L146.296,49.162C147.928,52.695 149.522,56.246 151.138,59.787C150.499,59.784 149.862,59.788 149.225,59.782C148.888,58.982 148.539,58.188 148.198,57.389C146.804,57.39 145.408,57.388 144.014,57.39C143.671,58.19 143.326,58.987 142.984,59.785C142.36,59.785 141.739,59.785 141.118,59.787ZM146.112,52.421C145.608,53.594 145.107,54.768 144.609,55.943L147.613,55.944C147.113,54.77 146.611,53.597 146.112,52.421ZM154.36,49.319C156.06,49.164 157.855,48.91 159.49,49.536C160.519,49.918 161.33,50.86 161.449,51.965C161.691,53.435 160.833,55.001 159.426,55.527C160.351,56.945 161.269,58.367 162.195,59.785C161.487,59.781 160.781,59.798 160.075,59.773C159.335,58.495 158.542,57.249 157.789,55.981C157.246,55.984 156.705,55.984 156.165,55.948L156.165,59.785L154.36,59.785L154.36,49.318L154.36,49.319ZM156.166,50.836L156.165,54.427C157.039,54.509 158.002,54.591 158.785,54.116C159.78,53.484 159.863,51.78 158.835,51.141C158.035,50.64 157.059,50.755 156.166,50.836ZM105.769,49.216C107.923,49.21 110.077,49.215 112.231,49.213L112.231,50.834L107.576,50.834L107.576,53.935L111.667,53.935L111.667,55.521L107.577,55.521L107.576,59.785L105.77,59.785C105.769,56.261 105.771,52.739 105.769,49.215L105.769,49.216ZM165.539,49.213L172,49.213L172,50.834L167.346,50.834L167.346,53.618L171.553,53.618L171.553,55.204L167.346,55.204L167.346,58.129L172,58.129L172,59.785L165.539,59.785L165.539,49.213Z" style="fill-rule:nonzero;"/>
    </g>
</svg>
